X: 33561
T: Rakes Of Clonmel, The
R: jig
M: 6/8
K: Aminor
B|:cBA GED|EAA A2B|cBc edc|BGG GAB|
cBc dcd|edc Bcd|ecA GED|EAA A2:|
a|:aea aed|cBc ABc|g^fg gdc|BGG GAB|
cBc dcd|edc Bcd|ecA GED|EAA A2:|

